X:19
T:Blackberry Blossom
R:Reel
C:Tradional - Arr.  Tim O'Brien
S:Tabledit
M:4/4
L:1/8
K:G
ef|:"G"gabg "D"fgaf|"C"efge "G"dBAG|"C"EFGE "G"DFGA|"A"BGBd "D"A2 ef|
"G"gabg "D"fgaf|"C"efge "G"dBAG|"C"EFGE "G"DFGA|1"D"BGAF "G"G2 ef:|2"D"BGAF "G"G2GF|
